64x64/apps/info.febvre.Komikku.svg

<svg xmlns="http://www.w3.org/2000/svg" width="64" height="64"><path style="opacity:.2" d="M10 51v6c0 2.216 1.784 4 4 4h40v-6z"/><path style="fill:#f4f4f7" d="M10 50v6c0 2.216 1.784 4 4 4h40v-6z"/><path style="opacity:.1" d="M10 45v6c0 2.216 1.784 4 4 4h40v-6z"/><path style="fill:#ee4035" d="M14 4c-2.216 0-4 1.784-4 4v42c0 2.216 1.784 4 4 4h40V4H14z"/><path style="opacity:.2" d="M24.736 19.797c-.615-.386-.867-.697-.671-.83.086-.058 1.254-.15 2.596-.203 1.867-.075 3.037-.249 4.984-.74 3.785-.955 4.136-.994 4.959-.552 1.37.735 1.729 1.388 1.088 1.978-.418.385-.794.413-6.878.516-4.36.073-5.755.034-6.078-.169zm-4.445 21.468-.374-.736.017-6.463c.018-6.908-.022-7.56-.517-8.548-.703-1.403.411-2.041 1.763-1.009.679.518.679.519.75 1.572.098 1.458.092 7.408-.011 11.409-.103 3.974-.203 4.51-.842 4.51-.313 0-.502-.177-.786-.735zm4.583-4.946c-.233-.994-.364-3.115-.445-7.235-.075-3.791-.11-4.312-.336-5.012-.139-.429-.253-.844-.253-.921 0-.328.944-.105 1.204.284.221.331.455.393 1.051.282.421-.079 5.518-.969 5.518-.969 5.68-1.127 7.339-.963 7.577.75.037.272-.032 1.064-.154 1.76-.338 1.935-2.159 10.448-2.266 10.599-.052.074-2.365.199-5.139.279-3.051.087-5.721.248-5.851.408-.343.419-.781.31-.906-.225zm4.757-1.75c.26-.159.447-1.246.572-3.32.058-.971.036-1.231-.114-1.363-.103-.09-.811-.014-1.573.168-1.733.414-2.458.63-2.339 2.81.044.808.139 1.556.211 1.661.154.224 2.891.26 3.243.044zm5.73-1.633c.392-1.625 1.049-6.172 1.123-7.764.059-1.301.05-1.36-.245-1.529-.476-.273-2.822.03-3.171.41-.173.188-.414.82-.542 1.422-.399 1.884-.389 1.903 1.019 2.003.8.056 1.3.205 1.391.413.246.562-.05.879-1.059 1.138-1.353.347-1.444.414-1.622 1.209-.242 1.08-.337 2.802-.189 3.433.122.519.205.544 1.574.475l1.446-.073zm-6.936-4.31c1.686-.48 1.745-.536 1.671-1.554l-.181-1.524c-.118-.701-.139-.715-1.064-.709-1.128.008-2.387.322-2.585.94-.19.592-.192 2.872-.003 3.046.211.195.757.2 2.162-.199zm11.579 13.059a1.677 1.677 0 0 1-.122-.568c0-.162-.124-.477-.275-.701-.256-.38-.765-.406-7.779-.406-6.134 0-7.548-.057-7.746-.312-.327-.422-.142-.659.644-.824 1.06-.223 9.719-.853 12.475-.908 1.452-.029 2.689-.121 2.749-.206.107-.149 1.247-5.541 1.247-5.541s.287-2.118.397-3.44c.234-2.795.341-3.344.648-3.344.253.001 1.454 1.231 1.708 1.75.134.275.148.514.072 1.28-.208 2.094-1.672 9.153-2.317 11.168-.568 1.777-1.387 2.764-1.701 2.052z"/><path style="fill:#f4f4f7" d="M24.736 18.797c-.615-.386-.867-.697-.671-.83.086-.058 1.254-.15 2.596-.203 1.867-.075 3.037-.249 4.984-.74 3.785-.955 4.136-.994 4.959-.552 1.37.735 1.729 1.388 1.088 1.978-.418.385-.794.413-6.878.516-4.36.073-5.755.034-6.078-.169zm-4.445 21.468-.374-.736.017-6.463c.018-6.908-.022-7.56-.517-8.548-.703-1.403.411-2.041 1.763-1.009.679.518.679.519.75 1.572.098 1.458.092 7.408-.011 11.409-.103 3.974-.203 4.51-.842 4.51-.313 0-.502-.177-.786-.735zm4.583-4.946c-.233-.994-.364-3.115-.445-7.235-.075-3.791-.11-4.312-.336-5.012-.139-.429-.253-.844-.253-.921 0-.328.944-.105 1.204.284.221.331.455.393 1.051.282.421-.079 5.518-.969 5.518-.969 5.68-1.127 7.339-.963 7.577.75.037.272-.032 1.064-.154 1.76-.338 1.935-2.159 10.448-2.266 10.599-.052.074-2.365.199-5.139.279-3.051.087-5.721.248-5.851.408-.343.419-.781.31-.906-.225zm4.757-1.75c.26-.159.447-1.246.572-3.32.058-.971.036-1.231-.114-1.363-.103-.09-.811-.014-1.573.168-1.733.414-2.458.63-2.339 2.81.044.808.139 1.556.211 1.661.154.224 2.891.26 3.243.044zm5.73-1.633c.392-1.625 1.049-6.172 1.123-7.764.059-1.301.05-1.36-.245-1.529-.476-.273-2.822.03-3.171.41-.173.188-.414.82-.542 1.422-.399 1.884-.389 1.903 1.019 2.003.8.056 1.3.205 1.391.413.246.562-.05.879-1.059 1.138-1.353.347-1.444.414-1.622 1.209-.242 1.08-.337 2.802-.189 3.433.122.519.205.544 1.574.475l1.446-.073zm-6.936-4.31c1.686-.48 1.745-.536 1.671-1.554l-.181-1.524c-.118-.701-.139-.715-1.064-.709-1.128.008-2.387.322-2.585.94-.19.592-.192 2.872-.003 3.046.211.195.757.2 2.162-.199zm11.579 13.059a1.677 1.677 0 0 1-.122-.568c0-.162-.124-.477-.275-.701-.256-.38-.765-.406-7.779-.406-6.134 0-7.548-.057-7.746-.312-.327-.422-.142-.659.644-.824 1.06-.223 9.719-.853 12.475-.908 1.452-.029 2.689-.121 2.749-.206.107-.149 1.247-5.541 1.247-5.541s.287-2.118.397-3.44c.234-2.795.341-3.344.648-3.344.253.001 1.454 1.231 1.708 1.75.134.275.148.514.072 1.28-.208 2.094-1.672 9.153-2.317 11.168-.568 1.777-1.387 2.764-1.701 2.052z"/><path style="opacity:.2;fill:#f4f4f7" d="M14 4c-2.216 0-4 1.784-4 4v1c0-2.216 1.784-4 4-4h40V4H14z"/></svg>

<svg xmlns="http://www.w3.org/2000/svg" width="64" height="64" version="1.1">
 <path style="opacity:0.2" d="M 10,51 V 57 C 10,59.216 11.784,61 14,61 H 54 V 55 Z"/>
 <path style="fill:#f4f4f7" d="M 10,50 V 56 C 10,58.216 11.784,60 14,60 H 54 V 54 Z"/>
 <path style="opacity:0.1" d="M 10,45 V 51 C 10,53.216 11.784,55 14,55 H 54 V 49 Z"/>
 <path style="fill:#ee4035" d="M 14 4 C 11.784 4 10 5.784 10 8 L 10 50 C 10 52.216 11.784 54 14 54 L 54 54 L 54 4 L 14 4 z"/>
 <path style="opacity:0.2" d="M 24.736,19.797 C 24.121,19.411 23.869,19.1 24.065,18.967 24.151,18.909 25.319,18.817 26.661,18.764 28.528,18.689 29.698,18.515 31.645,18.024 35.43,17.069 35.781,17.03 36.604,17.472 37.974,18.207 38.333,18.86 37.692,19.45 37.274,19.835 36.898,19.863 30.814,19.966 26.454,20.039 25.059,20 24.736,19.797 Z M 20.291,41.265 19.917,40.529 19.934,34.066 C 19.952,27.158 19.912,26.506 19.417,25.518 18.714,24.115 19.828,23.477 21.18,24.509 21.859,25.027 21.859,25.028 21.93,26.081 22.028,27.539 22.022,33.489 21.919,37.49 21.816,41.464 21.716,42 21.077,42 20.764,42 20.575,41.823 20.291,41.265 Z M 24.874,36.319 C 24.641,35.325 24.51,33.204 24.429,29.084 24.354,25.293 24.319,24.772 24.093,24.072 23.954,23.643 23.84,23.228 23.84,23.151 23.84,22.823 24.784,23.046 25.044,23.435 25.265,23.766 25.499,23.828 26.095,23.717 26.516,23.638 31.613,22.748 31.613,22.748 37.293,21.621 38.952,21.785 39.19,23.498 39.227,23.77 39.158,24.562 39.036,25.258 38.698,27.193 36.877,35.706 36.77,35.857 36.718,35.931 34.405,36.056 31.631,36.136 28.58,36.223 25.91,36.384 25.78,36.544 25.437,36.963 24.999,36.854 24.874,36.319 Z M 29.631,34.569 C 29.891,34.41 30.078,33.323 30.203,31.249 30.261,30.278 30.239,30.018 30.089,29.886 29.986,29.796 29.278,29.872 28.516,30.054 26.783,30.468 26.058,30.684 26.177,32.864 26.221,33.672 26.316,34.42 26.388,34.525 26.542,34.749 29.279,34.785 29.631,34.569 Z M 35.361,32.936 C 35.753,31.311 36.41,26.764 36.484,25.172 36.543,23.871 36.534,23.812 36.239,23.643 35.763,23.37 33.417,23.673 33.068,24.053 32.895,24.241 32.654,24.873 32.526,25.475 32.127,27.359 32.137,27.378 33.545,27.478 34.345,27.534 34.845,27.683 34.936,27.891 35.182,28.453 34.886,28.77 33.877,29.029 32.524,29.376 32.433,29.443 32.255,30.238 32.013,31.318 31.918,33.04 32.066,33.671 32.188,34.19 32.271,34.215 33.64,34.146 L 35.086,34.073 Z M 28.425,28.626 C 30.111,28.146 30.17,28.09 30.096,27.072 L 29.915,25.548 C 29.797,24.847 29.776,24.833 28.851,24.839 27.723,24.847 26.464,25.161 26.266,25.779 26.076,26.371 26.074,28.651 26.263,28.825 26.474,29.02 27.02,29.025 28.425,28.626 Z M 40.004,41.685 C 39.937,41.534 39.882,41.278 39.882,41.117 39.882,40.955 39.758,40.64 39.607,40.416 39.351,40.036 38.842,40.01 31.828,40.01 25.694,40.01 24.28,39.953 24.082,39.698 23.755,39.276 23.94,39.039 24.726,38.874 25.786,38.651 34.445,38.021 37.201,37.966 38.653,37.937 39.89,37.845 39.95,37.76 40.057,37.611 41.197,32.219 41.197,32.219 41.197,32.219 41.484,30.101 41.594,28.779 41.828,25.984 41.935,25.435 42.242,25.435 42.495,25.436 43.696,26.666 43.95,27.185 44.084,27.46 44.098,27.699 44.022,28.465 43.814,30.559 42.35,37.618 41.705,39.633 41.137,41.41 40.318,42.397 40.004,41.685 Z"/>
 <path style="fill:#f4f4f7" d="M 24.736,18.797 C 24.121,18.411 23.869,18.1 24.065,17.967 24.151,17.909 25.319,17.817 26.661,17.764 28.528,17.689 29.698,17.515 31.645,17.024 35.43,16.069 35.781,16.03 36.604,16.472 37.974,17.207 38.333,17.86 37.692,18.45 37.274,18.835 36.898,18.863 30.814,18.966 26.454,19.039 25.059,19 24.736,18.797 Z M 20.291,40.265 19.917,39.529 19.934,33.066 C 19.952,26.158 19.912,25.506 19.417,24.518 18.714,23.115 19.828,22.477 21.18,23.509 21.859,24.027 21.859,24.028 21.93,25.081 22.028,26.539 22.022,32.489 21.919,36.49 21.816,40.464 21.716,41 21.077,41 20.764,41 20.575,40.823 20.291,40.265 Z M 24.874,35.319 C 24.641,34.325 24.51,32.204 24.429,28.084 24.354,24.293 24.319,23.772 24.093,23.072 23.954,22.643 23.84,22.228 23.84,22.151 23.84,21.823 24.784,22.046 25.044,22.435 25.265,22.766 25.499,22.828 26.095,22.717 26.516,22.638 31.613,21.748 31.613,21.748 37.293,20.621 38.952,20.785 39.19,22.498 39.227,22.77 39.158,23.562 39.036,24.258 38.698,26.193 36.877,34.706 36.77,34.857 36.718,34.931 34.405,35.056 31.631,35.136 28.58,35.223 25.91,35.384 25.78,35.544 25.437,35.963 24.999,35.854 24.874,35.319 Z M 29.631,33.569 C 29.891,33.41 30.078,32.323 30.203,30.249 30.261,29.278 30.239,29.018 30.089,28.886 29.986,28.796 29.278,28.872 28.516,29.054 26.783,29.468 26.058,29.684 26.177,31.864 26.221,32.672 26.316,33.42 26.388,33.525 26.542,33.749 29.279,33.785 29.631,33.569 Z M 35.361,31.936 C 35.753,30.311 36.41,25.764 36.484,24.172 36.543,22.871 36.534,22.812 36.239,22.643 35.763,22.37 33.417,22.673 33.068,23.053 32.895,23.241 32.654,23.873 32.526,24.475 32.127,26.359 32.137,26.378 33.545,26.478 34.345,26.534 34.845,26.683 34.936,26.891 35.182,27.453 34.886,27.77 33.877,28.029 32.524,28.376 32.433,28.443 32.255,29.238 32.013,30.318 31.918,32.04 32.066,32.671 32.188,33.19 32.271,33.215 33.64,33.146 L 35.086,33.073 Z M 28.425,27.626 C 30.111,27.146 30.17,27.09 30.096,26.072 L 29.915,24.548 C 29.797,23.847 29.776,23.833 28.851,23.839 27.723,23.847 26.464,24.161 26.266,24.779 26.076,25.371 26.074,27.651 26.263,27.825 26.474,28.02 27.02,28.025 28.425,27.626 Z M 40.004,40.685 C 39.937,40.534 39.882,40.278 39.882,40.117 39.882,39.955 39.758,39.64 39.607,39.416 39.351,39.036 38.842,39.01 31.828,39.01 25.694,39.01 24.28,38.953 24.082,38.698 23.755,38.276 23.94,38.039 24.726,37.874 25.786,37.651 34.445,37.021 37.201,36.966 38.653,36.937 39.89,36.845 39.95,36.76 40.057,36.611 41.197,31.219 41.197,31.219 41.197,31.219 41.484,29.101 41.594,27.779 41.828,24.984 41.935,24.435 42.242,24.435 42.495,24.436 43.696,25.666 43.95,26.185 44.084,26.46 44.098,26.699 44.022,27.465 43.814,29.559 42.35,36.618 41.705,38.633 41.137,40.41 40.318,41.397 40.004,40.685 Z"/>
 <path style="opacity:0.2;fill:#f4f4f7" d="M 14 4 C 11.784 4 10 5.784 10 8 L 10 9 C 10 6.784 11.784 5 14 5 L 54 5 L 54 4 L 14 4 z"/>
</svg>
